projects/oblique/icons/AddressBook.svg

<?xml version="1.0" encoding="UTF-8"?><svg id="a" xmlns="http://www.w3.org/2000/svg" viewBox="0 0 24 24"><path d="M5.18555,1.25049v2.08203h-1.93555v4.85352h1.93555v1.3877h-1.93555v4.85254h1.93555v1.38867h-1.93555v4.85254h1.93555v2.08301h15.56445V1.25049H5.18555ZM5.18555,19.16748h-.43555v-1.85254h.43555v1.85254ZM5.18555,12.92627h-.43555v-1.85254h.43555v1.85254ZM5.18555,6.68604h-.43555v-1.85352h.43555v1.85352ZM19.25,21.25049H6.68555V2.75049h12.56445v18.5ZM9.20654,20.37549h-1.5v-4.79199c0-1.93945,1.57764-3.51758,3.51709-3.51758h3.48828c1.93945,0,3.51709,1.57812,3.51709,3.51758v4.79199h-1.5v-4.79199c0-1.1123-.90479-2.01758-2.01709-2.01758h-3.48828c-1.1123,0-2.01709.90527-2.01709,2.01758v4.79199ZM12.96777,11.76612c2.24414,0,4.07031-1.82617,4.07031-4.07031s-1.82617-4.07031-4.07031-4.07031-4.07031,1.82617-4.07031,4.07031,1.82617,4.07031,4.07031,4.07031ZM12.96777,5.12549c1.41748,0,2.57031,1.15234,2.57031,2.57031,0,1.41699-1.15283,2.57031-2.57031,2.57031s-2.57031-1.15332-2.57031-2.57031c0-1.41797,1.15283-2.57031,2.57031-2.57031Z"/></svg>

<svg xmlns="http://www.w3.org/2000/svg" viewBox="0 0 24 24"><title>AddressBook</title><path d="M5.18555,1.25049v2.082H3.25V8.186H5.18555V9.57373H3.25v4.85254H5.18555v1.38867H3.25v4.85254H5.18555v2.083H20.75v-21.5Zm0,17.917H4.75V17.31494h.43555Zm0-6.24121H4.75V11.07373h.43555Zm0-6.24023H4.75V4.83252h.43555ZM19.25,21.25049H6.68555v-18.5H19.25Z" fill="#171717"/><path d="M9.20654,15.5835a2.01969,2.01969,0,0,1,2.01709-2.01758h3.48828A2.01969,2.01969,0,0,1,16.729,15.5835v4.792h1.5v-4.792a3.52133,3.52133,0,0,0-3.51709-3.51758H11.22363A3.52133,3.52133,0,0,0,7.70654,15.5835v4.792h1.5Z" fill="#171717"/><path d="M12.96777,11.76612A4.07032,4.07032,0,1,0,8.89746,7.6958,4.07524,4.07524,0,0,0,12.96777,11.76612Zm0-6.64063A2.57032,2.57032,0,1,1,10.39746,7.6958,2.57265,2.57265,0,0,1,12.96777,5.12549Z" fill="#171717"/></svg>
